!!!!SEGMENT: pl-kk--kk-i-88--004-004_golabek-jakub--missa-4ta-sanctus.krn
!!!cenid: 17xx:2593
!!!COM: Gołąbek, Jakub
!!!COM-rismID: pe30008748
!!!CDT: 1739-1789/03/30
!!!CNT: Polish
!!!OPR: Missa 4ta
!!!OTL: Sanctus
!!!OMV: 004
!!!PDT:
!!!AGN: Sacred; Mass
!!!YEC: Copyright 2022 Narodowy Instytut Fryderyka Chopina (https://polishscores.org)
!!!YEM: License CC-BY-4.0 (https://creativecommons.org/licenses/by/4.0)
!!!SMS-siglum: PL-Kk
!!!SMS-shelfmark: Kk.I.88
!!!SMS-variant:
!!!SMS-altvar:
!!!SMS-shelfwork: 004-004 M
!!!NIFC-rismSourceID: 1001164072
!!!NIFC-rismChildID: 1001164083
!!!NIFC-islandoraID:
!!!URL-pdf-islandora: https://repozytorium.nifc.pl/islandora/object/pl-kk%3A3086/datastream/PDF/view
!!!URL-scan: https://polish.musicsources.pl/pl/lokalizacje/galeria/rekopisy/6148-missa/4 @EN{Scan on Polish Music Sources Website} @PL{Skany w portalu Dziedzictwo Muzyki Polskiej w otwartym dostępie}
!!!IIIF:
!!!ONB-nifc: UWAGA: C - f. 8r-9v; A - f. 16r-17v; T - f. 24r-25v; B - f. 37r-39v; B rip - f. 37r-39v. Proszę uwzględniać B rip. Części Mszy: 1. Kyrie, 2. Christe, 3. Et in terra, 4. Sanctus, 5, Benedictus, 6. Osanna, 7. Agnus Dei.
!!!AIN: 1 alto 2 bass 1 soprn 1 tenor
!!!key:
**kern	**text	**kern	**text	**kern	**text	**kern	**text	**kern	**text
*part5	*part5	*part4	*part4	*part3	*part3	*part2	*part2	*part1	*part1
*staff5	*staff5	*staff4	*staff4	*staff3	*staff3	*staff2	*staff2	*staff1	*staff1
*I"Baſso	*	*I"Baſso	*	*I"Tenore	*	*I"Alto	*	*I"Canto	*
*I'B rip	*	*I'B	*	*I'T	*	*I'A	*	*I'S	*
*Ibass	*	*Ibass	*	*Itenor	*	*Ialto	*	*Isoprn	*
*ICvox	*	*ICvox	*	*ICvox	*	*ICvox	*	*ICvox	*
*clefF4	*	*clefF4	*	*clefC4	*	*clefC3	*	*clefC1	*
*k[b-e-]	*	*k[b-e-]	*	*k[b-e-]	*	*k[b-e-]	*	*k[b-e-]	*
*g:	*	*g:	*	*g:	*	*g:	*	*g:	*
*M3/2	*	*M3/2	*	*M3/2	*	*M3/2	*	*M3/2	*
=1	=1	=1	=1	=1	=1	=1	=1	=1	=1
*2\right	*	*2\right	*	*	*	*	*	*	*
2G\	San-	2G\	San-	1.B-	San-	1.g	San-	1.dd	San-
4G\	.	4G\	.	.	.	.	.	.	.
4A\	.	4A\	.	.	.	.	.	.	.
4B-\	.	4B-\	.	.	.	.	.	.	.
4c\	.	4c\	.	.	.	.	.	.	.
=2	=2	=2	=2	=2	=2	=2	=2	=2	=2
*	*	*	*	*2\right	*	*2\right	*	*2\right	*
2d\	.	2d\	.	2B-\	.	2g\	.	2dd\	.
2D/	-ctus	2D/	-ctus	2A\	-ctus	2f#X\	-ctus	2dd\	-ctus
2r	.	2r	.	2r	.	2r	.	2r	.
=3	=3	=3	=3	=3	=3	=3	=3	=3	=3
*	*	*	*	*	*ij	*	*ij	*	*
2G\	San-	2G\	San-	1.B-	San-	1.g	San-	2dd\	San-
2E-X\	.	2E-X\	.	.	.	.	.	2ee-X\	.
2C#X/	.	2C#X/	.	.	.	.	.	2een\	.
=4	=4	=4	=4	=4	=4	=4	=4	=4	=4
1D	-ctus	1D	-ctus	1A	-ctus	1f#X	-ctus	1dd	-ctus
2r	.	2r	.	2r	.	2r	.	2r	.
*	*	*	*	*	*Xij	*	*Xij	*	*
=5	=5	=5	=5	=5	=5	=5	=5	=5	=5
2B-\	San-	2B-\	San-	1.F	San-	1.d	San-	1.b-	San-
4BB-/	.	4BB-/	.	.	.	.	.	.	.
4C/	.	4C/	.	.	.	.	.	.	.
4D/	.	4D/	.	.	.	.	.	.	.
4E-X/	.	4E-X\	.	.	.	.	.	.	.
=6	=6	=6	=6	=6	=6	=6	=6	=6	=6
2F\	.	2F\	.	2F/	.	2d\	.	2b-\	.
2F\	-ctus	2F\	-ctus	2F/	-ctus	2c\	-ctus	2a\	-ctus
2r	.	2r	.	2r	.	2r	.	2r	.
!LO:LB:g=original	!	!LO:LB:g=original	!	!	!	!	!	!	!
=7	=7	=7	=7	=7	=7	=7	=7	=7	=7
*	*	*	*	*	*	*	*	*	*ij
2B-\	San-	2B-\	San-	2G/	San-	1d	San-	1.b-	San-
2G\	.	2G\	.	2En/	.	.	.	.	.
2En\	.	2En\	.	2G/	.	2g\	.	.	.
!	!	!	!	!LO:LB:g=original	!	!	!	!	!
=8	=8	=8	=8	=8	=8	=8	=8	=8	=8
1F	-ctus	1F	-ctus	1A	-ctus	1fn	-ctus	1cc	-ctus
2r	.	2r	.	2r	.	2r	.	2r	.
*	*	*	*	*	*	*	*	*	*Xij
!	!	!	!	!	!	!LO:LB:g=original	!	!LO:LB:g=original	!
=9	=9	=9	=9	=9	=9	=9	=9	=9	=9
2.F#X\	Do-	2.F#X\	Do-	2.A/	Do-	2.e-X\	Do-	2.cc\	Do-
4F#\	-mi-	4F#\	-mi-	4A/	-mi-	4e-\	-mi-	4cc\	-mi-
2G\	-nus	2G\	-nus	2G/	-nus	2d\	-nus	2b-\	-nus
=10	=10	=10	=10	=10	=10	=10	=10	=10	=10
*	*ij	*	*ij	*	*ij	*	*ij	*	*ij
2.c\	Do-	2.c\	Do-	2.d\	Do-	2.f#X\	Do-	2.a\	Do-
4c\	-mi-	4c\	-mi-	4d\	-mi-	4f#\	-mi-	4a\	-mi-
2B-\	-nus	2B-\	-nus	2d\	-nus	2g\	-nus	2b-\	-nus
*	*Xij	*	*Xij	*	*Xij	*	*Xij	*	*Xij
=11	=11	=11	=11	=11	=11	=11	=11	=11	=11
1A	De-	1A	De-	1F#X	De-	1e-	De-	1cc	De-
2G\	-us	2G\	-us	2G/	-us	2d\	-us	2b-\	-us
=12	=12	=12	=12	=12	=12	=12	=12	=12	=12
*	*ij	*	*ij	*	*ij	*	*	*	*ij
!	!	!	!	!	!	!LO:TX:t=P:problem=takt zapisany repetycją	!	!	!
1Fn	De-	1Fn	De-	1d	De-	1e-yy	De-	1a	De-
2G\	-us	2G\	-us	2d\	-us	2d\yy	-us	2b-\	-us
*	*Xij	*	*Xij	*	*Xij	*	*	*	*Xij
=13	=13	=13	=13	=13	=13	=13	=13	=13	=13
2C/	Sa-	2C/	Sa-	2c\	Sa-	2e-\	Sa-	4cc\	Sa-
.	.	.	.	.	.	.	.	4b-\	.
2D/	.	2D/	.	2d\	.	2f#X\	.	2a\	.
2D/	-ba-	2D/	-ba-	2d\	-ba-	2f#\	-ba-	2a\	-ba-
=14	=14	=14	=14	=14	=14	=14	=14	=14	=14
2GG/	-oth	2GG/	-oth	2d\	-oth.	2g\	-oth	2b-\	-oth
!LO:LB:g=original	!	!	!	!	!	!	!	!	!
4G\	Ple-	4G\	Ple-	2G/	Ple-	2d\	Ple-	2b-\	Ple-
4D\	.	4D\	.	.	.	.	.	.	.
4BB-/	-ni-	4BB-/	-ni-	4G/	-ni-	4d\	-ni-	4b-\	-ni-
4GG/	-sunt	4GG/	-sunt	4G/	-sunt	4d\	-sunt	4b-\	-sunt
!	!	!LO:LB:g=original	!	!LO:LB:g=original	!	!	!	!	!
=15	=15	=15	=15	=15	=15	=15	=15	=15	=15
1D	cae-	1D	cae-	1d	cae-	1f#X	cae-	1a	cae-
2D\	-li	2D\	-li	2d\	-li	2f#\	-li	2a\	-li
!	!	!	!	!	!	!	!	!LO:LB:g=original	!
=16	=16	=16	=16	=16	=16	=16	=16	=16	=16
2D\	cae-	2D\	cae-	2A/	cae-	2f\	cae-	2cc\	cae-
4D\	-li	4D\	-li	4A/	-li	4f\	-li	4cc\	-li
4E-\	.	4E-\	.	4G/	.	4g\	.	4b-\	.
4F#X\	et	4F#X\	et	4F#X/	et	4a\	et	4a\	et
4D\	.	4D\	.	4A\	.	4f\	.	4cc\	.
!	!	!	!	!	!	!LO:LB:g=original	!	!	!
=17	=17	=17	=17	=17	=17	=17	=17	=17	=17
2G\	ter-	2G\	ter-	2d\	ter-	2g\	ter-	2b-\	ter-
2D\	-ra	2D\	-ra	2d\	-ra	2f#X\	-ra	2a\	-ra
2r	.	2r	.	2r	.	2r	.	2r	.
=18	=18	=18	=18	=18	=18	=18	=18	=18	=18
4A\	glo-	4A\	glo-	4c\	glo-	1.f	glo-	1.dd	glo-
4G\	.	4G\	.	4B-\	.	.	.	.	.
4F#X\	.	4F#X\	.	4A\	.	.	.	.	.
4E-\	.	4E-\	.	4G\	.	.	.	.	.
4D\	.	4D\	.	4F#X/	.	.	.	.	.
4F#\	.	4F#\	.	4A/	.	.	.	.	.
!LO:LB:g=original	!	!	!	!	!	!	!	!	!
=19	=19	=19	=19	=19	=19	=19	=19	=19	=19
2G\	.	2G\	.	2B-\	.	2g\	.	2dd\	.
2A\	-ri-	2A\	-ri-	2c\	-ri-	2f\	-ri-	2cc\	-ri-
2B-X\	-a	2B-X\	-a	2d\	-a	2g\	-a	2b-\	-a
=20	=20	=20	=20	=20	=20	=20	=20	=20	=20
2c\	tu-	2c\	tu-	2e-X\	tu-	2a\	tu-	2cc\	tu-
2d\	.	2d\	.	1d	.	2g\	.	2b-\	.
2D/	.	2D/	.	.	.	2f\	.	2a\	.
!	!	!LO:LB:g=original	!	!LO:LB:g=original	!	!	!	!	!
=21	=21	=21	=21	=21	=21	=21	=21	=21	=21
1G	-a	1G	-a	1d	-a	1g	-a	1b-	-a
2D\	glo-	2D\	glo-	2d\	glo-	2f\	glo-	2a\	glo-
=22	=22	=22	=22	=22	=22	=22	=22	=22	=22
4G\	.	4G\	.	1.d	.	1.g	.	4b-\	.
4F#X\	.	4F#X\	.	.	.	.	.	4a\	.
4G\	.	4G\	.	.	.	.	.	4b-\	.
4A\	.	4A\	.	.	.	.	.	4cc\	.
4B-\	.	4B-\	.	.	.	.	.	4dd\	.
4G\	.	4G\	.	.	.	.	.	4b-\	.
!	!	!	!	!	!	!	!	!LO:LB:g=original	!
=23	=23	=23	=23	=23	=23	=23	=23	=23	=23
4F#X\	.	4F#X\	.	1d	.	1f#X	.	4a\	.
4E-\	.	4E-\	.	.	.	.	.	4g\	.
4D\	.	4D\	.	.	.	.	.	4f#X\	.
4E-\	.	4E-\	.	.	.	.	.	4g\	.
4F#\	.	4F#\	.	2d\	.	2f#\	.	4a\	.
4D\	.	4D\	.	.	.	.	.	4f#\	.
=24	=24	=24	=24	=24	=24	=24	=24	=24	=24
4G\	.	4G\	.	1d	-ri-	1g	-ri-	4b-\	.
4F\	.	4F\	.	.	.	.	.	4a\	.
4G\	.	4G\	.	.	.	.	.	4b-\	.
4A\	.	4A\	.	.	.	.	.	4cc\	.
4B-\	-ri-	4B-\	-ri-	2d\	-a	2g\	-a	4dd\	-ri-
4c\	-a	4c\	-a	.	.	.	.	4ee-\	-a
!LO:LB:g=original	!	!	!	!	!	!	!	!	!
=25	=25	=25	=25	=25	=25	=25	=25	=25	=25
2d\	tu-	2d\	tu-	2A\	tu-	2f#X\	tu-	2dd\	tu-
2D/	-a	2D/	-a	2A\	-a	2f#\	-a	2dd\	-a
2r	.	2r	.	2r	.	2r	.	2r	.
!	!	!	!	!	!	!LO:LB:g=original	!	!	!
=26	=26	=26	=26	=26	=26	=26	=26	=26	=26
4A\	glo-	4A\	glo-	2d\	glo-	2f#X\	glo-	4cc\	glo-
4G\	.	4G\	.	.	.	.	.	4b-\	.
!	!	!LO:LB:g=original	!	!	!	!	!	!	!
4F#X\	.	4F#X\	.	2d\	.	2f#\	-ri-	4a\	.
4E-\	.	4E-\	.	.	.	.	.	4g\	.
4D\	.	4D\	.	2d\	.	2f#\	-a	4f\	.
4F#\	.	4F#\	.	.	.	.	.	4a\	.
=27	=27	=27	=27	=27	=27	=27	=27	=27	=27
2G\	.	2G\	.	1d	-ri-	2g\	glo-	2b-\	.
2D/	-ri-	2D/	-ri-	.	.	2f\	-ri-	2a\	-ri-
2BB-/	-a	2BB-/	-a	2d\	-a	2g\	-a	2b-\	-a
!	!	!	!	!LO:LB:g=original	!	!	!	!	!
=28	=28	=28	=28	=28	=28	=28	=28	=28	=28
2C/	tu-	2C/	tu-	2e-\	tu-	2a\	tu-	2cc\	tu-
1D	.	1D	.	1d	.	2g\	.	2b-\	.
.	.	.	.	.	.	2f#X\	.	2a\	.
!	!	!	!	!	!	!	!	!LO:LB:g=original	!
=29	=29	=29	=29	=29	=29	=29	=29	=29	=29
1GG	-a	1GG	-a	1d	-a	1g	-a	1b-	-a
2r	.	2r	.	2r	.	2r	.	2r	.
=30	=30	=30	=30	=30	=30	=30	=30	=30	=30
4A\	glo-	4A\	glo-	2d\	glo-	2f#X\	glo-	4cc\	glo-
4G\	.	4G\	.	.	.	.	.	4b-\	.
4F#X\	.	4F#X\	.	2d\	-ri-	2f#\	-ri-	4a\	.
4E-\	.	4E-\	.	.	.	.	.	4g\	.
4D\	.	4D\	.	2d\	-a	2f#\	-a	4f#X\	.
4F#\	.	4F#\	.	.	.	.	.	4a\	.
!LO:LB:g=original	!	!	!	!	!	!	!	!	!
=31	=31	=31	=31	=31	=31	=31	=31	=31	=31
2G\	.	2G\	.	1d	glo-	2g\	glo-	2b-\	.
2D/	-ri-	2D/	-ri-	.	.	2f\	-ri-	2a\	-ri-
2BB-/	-a	2BB-/	-a	2d\	-ri-	2g\	-a	2b-\	-a
=32	=32	=32	=32	=32	=32	=32	=32	=32	=32
2C/	tu-	2C/	tu-	2e-X\	-a	2a\	tu-	2cc\	tu-
1D	.	1D	.	1d	tu-	2g\	.	2b-\	.
.	.	.	.	.	.	2f\	.	2a\	.
!	!	!LO:LB:g=original	!	!	!	!	!	!	!
=33	=33	=33	=33	=33	=33	=33	=33	=33	=33
1GG	-a	1GG	-a	1.d	-a	1.g	-a	1b-	-a
!LO:TX:b:t=Benedictus Tacet	!	!LO:TX:b:t=Benedictus Tacet	!	!	!	!	!	!	!
2r	.	2r	.	.	.	.	.	2r	.
==	==	==	==	==	==	==	==	==	==
*-	*-	*-	*-	*-	*-	*-	*-	*-	*-
!!!system-decoration: [(s1,s2,s3,s4)]s5
!!!ENC: Berenika Jozajtis
!!!END: 2024-03-10
!!!EED: Andrzej Borzym
!!!END: 2025-02-17
